!!!SOCIAL_FUNCTION:	parade songs
!!!PDT:	1922
!!!OTL: No_92_Parade_Song_(j).krn
!!!REG: Southwest
!!!LANG: Non-Tone
!!!LING_GROUP: Uto-Aztecan
**kern
*staff1
=1-
*clefF4
*k[b-]
*M3/4
4.f\
8f\
4f\
=2
8f\L
8f\J
4.c\
8A\
=3||
*M2/4
4A\
[4A\
=4
2A\]
=5||
*M3/4
4.f\
8f\
4f\
=6
8f\L
8f\J
4.c\
8A\
=7||
*M2/4
4A\
[4A\
=8
2A\]
=9
=
*M3/4
4c\
8f\L
8f\J
4c\
=10||
*M2/4
4c\
4c\
=11
4c\
4c\
=12
8A\L
[8c\J
4c\]
=13||
*M3/4
8A\L
8F\J
2A\
=14||
*M2/4
4F\
4F\
=15||
*M3/4
2.F\
=16
2.F\
=17
*M2/4
4B-\
4B-\
=18
4c\
4B-\
=19
4F\
[4B-\
=20
4B-\]
16F\LK
8.F\J
==:|!
*-
